Newaita-dark/apps/48/com.github.coralynnmay.goodvibesapp.svg

<svg height="48" viewBox="0 0 48 48" width="48" xmlns="http://www.w3.org/2000/svg" xmlns:xlink="http://www.w3.org/1999/xlink"><linearGradient id="a" gradientUnits="userSpaceOnUse" x1="23.81478" x2="23.81478" y1="42.0509045" y2="44.03547050005"><stop offset="0" stop-opacity=".27451"/><stop offset="1" stop-opacity="0"/></linearGradient><linearGradient id="b"><stop offset="0" stop-opacity=".313726"/><stop offset=".222222" stop-opacity=".27451"/><stop offset="1" stop-opacity="0"/></linearGradient><radialGradient id="c" cx="450.908936" cy="189.579361" gradientTransform="matrix(.00000026 -.117199 -.210958 -.00000015 78.195972 95.392999)" gradientUnits="userSpaceOnUse" r="21.166656" xlink:href="#b"/><radialGradient id="d" cx="450.908936" cy="189.579361" gradientTransform="matrix(-.00000026 .117199 .210958 .00000015 -30.56642 -11.291218)" gradientUnits="userSpaceOnUse" r="21.166656" xlink:href="#b"/><radialGradient id="e" cx="450.908936" cy="189.579361" gradientTransform="matrix(-.00000026 -.117199 .210958 -.00000015 -30.56642 95.392999)" gradientUnits="userSpaceOnUse" r="21.166656" xlink:href="#b"/><radialGradient id="f" cx="450.908936" cy="189.579361" gradientTransform="matrix(.00000026 .117199 -.210958 .00000015 78.195969 -11.291219)" gradientUnits="userSpaceOnUse" r="21.166656" xlink:href="#b"/><linearGradient id="g" gradientUnits="userSpaceOnUse" x1="15.87652349995" x2="15.87652349995" y1="42.0509015" y2="4.3441580001"><stop offset="0" stop-color="#29b6f6"/><stop offset="1" stop-color="#4fc3f7"/></linearGradient><linearGradient id="h" gradientUnits="userSpaceOnUse" x1="23.814786" x2="23.814786" y1="42.0509015" y2="4.3441580001"><stop offset="0" stop-color="#5c6bc0"/><stop offset="1" stop-color="#7986cb"/></linearGradient><path d="m8.929688 41.902344h29.769531v2.207031h-29.769531zm0 0" fill="url(#a)"/><path d="m38.699219 42.050781h3.96875v-1.984375h-3.96875zm0 0" fill="url(#c)"/><path d="m8.929688 42.050781h-3.96875v1.984375h3.96875zm0 0" fill="url(#d)"/><path d="m8.929688 42.050781h-3.96875v-1.984375h3.96875zm0 0" fill="url(#e)"/><path d="m38.699219 42.050781h3.96875v1.984375h-3.96875zm0 0" fill="url(#f)"/><path d="m6.945312 4.34375h33.738282c1.097656 0 1.984375.890625 1.984375 1.984375v33.738281c0 1.097656-.886719 1.984375-1.984375 1.984375h-33.738282c-1.09375 0-1.984374-.886719-1.984374-1.984375v-33.738281c0-1.09375.890624-1.984375 1.984374-1.984375zm0 0" fill="url(#g)"/><path d="m6.945312 4.34375c-1.097656 0-1.984374.886719-1.984374 1.984375v.25c0-1.101563.886718-1.988281 1.984374-1.984375h33.738282c1.097656-.003906 1.984375.882812 1.984375 1.984375v-.25c0-1.097656-.886719-1.984375-1.984375-1.984375zm0 0" fill="#e6e6e6" fill-opacity=".392157"/><path d="m6.945312 42.050781c-1.097656 0-1.984374-.886719-1.984374-1.984375v-.25c0 1.101563.886718 1.988282 1.984374 1.988282h33.738282c1.097656 0 1.984375-.886719 1.984375-1.988282v.25c0 1.097656-.886719 1.984375-1.984375 1.984375zm0 0" fill-opacity=".196078"/><path d="m74.076259-168.671091h359.840637c11.707216 0 21.164646 9.499093 21.164646 21.164646v359.840637c0 11.707215-9.45743 21.164645-21.164646 21.164645h-359.840637c-11.665552 0-21.164645-9.45743-21.164645-21.164645v-359.840637c0-11.665553 9.499093-21.164646 21.164645-21.164646zm0 0" fill="none" stroke="#212121" stroke-linecap="round" stroke-width="3" transform="matrix(.093759 0 0 .093759 0 20.158175)"/><path d="m12.039062 31.675781c-3.953124-1.035156-5.589843-4.03125-4.6875-8.589843 1.097657-5.546876 4.972657-8.625 10.832032-8.597657 8.84375.039063 11.488281.214844 11.4375.757813-.046875.480468-.101563.523437-.789063.597656-.996093.113281-1.003906-.085938.246094 5.777344 1.117187 5.242187 1.230469 5.609375 1.613281 5.191406.5-.539062 6.5-10.664062 6.410156-10.808594-.054687-.085937-.460937-.160156-.90625-.160156-.84375 0-.898437-.0625-.707031-.777344.105469-.390625 4.976563-.601562 4.976563-.214844 0 .609376-.34375.992188-.890625.992188-.742188 0-.59375-.207031-5.097657 7.292969-5.648437 9.402343-4.917968 8.457031-6.503906 8.402343-1.488281-.054687-1.179687.792969-3.164062-8.648437-1.199219-5.71875-2.503906-7.292969-6.050782-7.292969-4.027343 0-6.644531 3.789063-6.917968 10.011719-.191406 4.375 2.253906 6.238281 6.195312 4.71875 1.058594-.40625 1.089844-.460937 1.550782-2.746094.515624-2.546875.511718-2.5625-.671876-2.5625-.921874 0-.921874 0-.808593-.53125.167969-.796875.136719-.792969 3.203125-.742187 3.34375.050781 3.0625-.417969 2.273437 3.757812-.585937 3.101563-.441406 2.953125-3.761719 3.855469-1.886718.511719-6.339843.691406-7.78125.316406zm0 0" fill="url(#h)"/><path d="m18.183594 14.574219c-5.859375-.023438-9.734375 3.050781-10.832032 8.597656-.175781.882813-.253906 1.703125-.238281 2.464844.011719-.664063.089844-1.371094.238281-2.121094 1.097657-5.546875 4.972657-8.621094 10.832032-8.597656 8.207031.035156 11.074218.191406 11.402344.648437.015624-.066406.023437-.140625.035156-.234375.050781-.542969-2.59375-.71875-11.4375-.757812zm20.734375.15625c-1.4375.003906-3.363281.175781-3.429688.421875-.082031.3125-.121093.5-.066406.613281.015625-.078125.039063-.167969.066406-.269531.101563-.375 4.535157-.582032 4.945313-.265625.019531-.089844.03125-.1875.03125-.292969 0-.144531-.6875-.207031-1.546875-.207031zm-1.9375 1.636719c-.84375 1.644531-5.835938 10.042968-6.289063 10.53125-.382812.417968-.496094.050781-1.613281-5.191407-.601563-2.816406-.910156-4.234375-.960937-4.960937-.058594.582031.246093 1.953125.960937 5.308594 1.117187 5.238281 1.230469 5.609374 1.613281 5.191406.5-.542969 6.5-10.667969 6.410156-10.8125-.015624-.023438-.058593-.046875-.121093-.066406zm-17.273438 7.445312c-1.460937.007812-1.46875.136719-1.601562.761719-.046875.226562-.074219.355469-.019531.433593.007812-.03125.011718-.058593.019531-.089843.167969-.796875.136719-.789063 3.203125-.742188 1.992187.03125 2.695312-.121093 2.773437.628907.085938-1.140626-.519531-.9375-2.773437-.972657-.671875-.011719-1.191406-.019531-1.601563-.019531zm.199219 2.054688c-.03125.378906-.144531.949218-.320312 1.804687-.460938 2.28125-.492188 2.335937-1.550782 2.742187-3.742187 1.445313-6.136718-.164062-6.203125-4.074218-.070312 4.160156 2.355469 5.902344 6.203125 4.417968 1.058594-.40625 1.089844-.460937 1.550782-2.742187.238281-1.167969.363281-1.800781.320312-2.148437zm0 0" fill="#fff" fill-opacity=".392157"/><path d="m40.320312 15.609375c-.152343.253906-.410156.398437-.746093.398437-.742188 0-.59375-.207031-5.097657 7.289063-5.648437 9.40625-4.917968 8.460937-6.503906 8.402344-1.488281-.050781-1.179687.792969-3.164062-8.648438-1.199219-5.71875-2.503906-7.289062-6.050782-7.289062-4.027343 0-6.644531 3.785156-6.917968 10.011719-.011719.28125-.015625.554687-.003906.816406 0-.042969 0-.082032.003906-.121094.273437-6.226562 2.890625-10.011719 6.917968-10.011719 3.546876 0 4.851563 1.570313 6.050782 7.289063 1.984375 9.441406 1.675781 8.597656 3.164062 8.648437 1.585938.058594.855469 1.003907 6.503906-8.402343 4.503907-7.496094 4.355469-7.289063 5.097657-7.289063.546875 0 .890625-.386719.890625-.992187 0-.042969-.054688-.074219-.144532-.101563zm-10.882812.269531c-.105469.066406-.289062.09375-.605469.128906-.5625.0625-.808593.027344-.691406 1.042969.078125-.308593.3125-.304687.691406-.347656.6875-.078125.742188-.117187.789063-.597656.007812-.085938-.050782-.160157-.183594-.226563zm6.054688.039063c-.003907.003906-.003907.003906-.003907.007812-.191406.714844-.136719.777344.707031.777344.230469 0 .453126.019531.621094.050781.191406-.351562.296875-.566406.285156-.589844-.054687-.085937-.460937-.15625-.90625-.15625-.375 0-.59375-.011718-.703124-.089843zm-11.429688 9.183593c-.070312.554688-.253906 1.367188-.480469 2.5625-.585937 3.105469-.441406 2.957032-3.761719 3.855469-1.886718.515625-6.339843.695313-7.78125.320313-3.128906-.824219-4.808593-2.871094-4.921874-5.953125-.125 3.46875 1.5625 5.765625 4.921874 6.648437 1.441407.375 5.894532.195313 7.78125-.320312 3.320313-.898438 3.175782-.75 3.761719-3.855469.347657-1.84375.597657-2.78125.480469-3.257813zm-5.910156.03125c-.015625.0625-.03125.132813-.046875.210938-.113281.535156-.113281.535156.808593.535156.574219 0 .871094.003906.964844.296875.132813-.984375-.105468-.992187-.964844-.992187-.417968 0-.648437-.003906-.761718-.050782zm0 0" fill-opacity=".235294"/><path d="m128.404405 122.842738c-42.162641-11.040613-59.619307-42.995894-49.995226-91.616251 11.707215-59.161018 53.036602-91.991216 115.530634-91.699577 94.324326.416627 122.529966 2.291448 121.988351 8.082562-.499953 5.12451-1.08323 5.5828-8.415863 6.374391-10.623986 1.208218-10.707311-.916579 2.624749 61.619116 11.915529 55.911327 13.123747 59.82762 17.20669 55.369712 5.332824-5.749451 69.326713-113.739138 68.368471-115.280658-.583277-.916579-4.916197-1.70817-9.665743-1.70817-8.999141 0-9.582419-.666603-7.540947-8.290875 1.124893-4.166269 53.078265-6.416054 53.078265-2.291448 0 6.499379-3.666317 10.582323-9.499093 10.582323-7.915911 0-6.332729-2.208123-54.369808 77.784238-60.244247 100.282091-52.453324 90.19972-69.368376 89.616443-15.873484-.583278-12.582131 8.457525-33.746777-92.241192-12.790445-60.994175-26.705783-77.784239-64.535504-77.784239-42.954231 0-70.868232 40.412808-73.78462 106.78147-2.041472 46.662211 24.039371 66.535313 66.077023 50.328527 11.290588-4.332919 11.62389-4.916197 16.540087-29.288869 5.499475-27.164073 5.457812-27.330724-7.165982-27.330724-9.832395 0-9.832395 0-8.624177-5.666125 1.791496-8.499189 1.458194-8.457526 34.163404-7.915911 35.663261.541615 32.663548-4.457908 24.247685 40.079506-6.249403 33.080174-4.707884 31.496992-40.121169 41.121073-20.123078 5.457812-67.618542 7.374296-82.992074 3.374678zm0 0" fill="none" stroke="#212121" stroke-width="3" transform="matrix(.093759 0 0 .093759 0 20.158175)"/></svg>

<?xml version="1.0" encoding="UTF-8"?>
<svg xmlns="http://www.w3.org/2000/svg" xmlns:xlink="http://www.w3.org/1999/xlink" width="48px" height="48px" viewBox="0 0 48 48" version="1.1">
<defs>
<linearGradient id="linear0" gradientUnits="userSpaceOnUse" x1="254" y1="233.5" x2="254" y2="254.666672" gradientTransform="matrix(0.093759,0,0,0.093759,-0.00000572259,20.158178)">
<stop offset="0" style="stop-color:rgb(0%,0%,0%);stop-opacity:0.27451;"/>
<stop offset="1" style="stop-color:rgb(0%,0%,0%);stop-opacity:0;"/>
</linearGradient>
<radialGradient id="radial0" gradientUnits="userSpaceOnUse" cx="450.908936" cy="189.579361" fx="450.908936" fy="189.579361" r="21.166656" gradientTransform="matrix(0.000000261256,-0.117199,-0.210958,-0.000000152308,78.195972,95.392999)">
<stop offset="0" style="stop-color:rgb(0%,0%,0%);stop-opacity:0.313726;"/>
<stop offset="0.222222" style="stop-color:rgb(0%,0%,0%);stop-opacity:0.27451;"/>
<stop offset="1" style="stop-color:rgb(0%,0%,0%);stop-opacity:0;"/>
</radialGradient>
<radialGradient id="radial1" gradientUnits="userSpaceOnUse" cx="450.908936" cy="189.579361" fx="450.908936" fy="189.579361" r="21.166656" gradientTransform="matrix(-0.000000261256,0.117199,0.210958,0.000000152308,-30.56642,-11.291218)">
<stop offset="0" style="stop-color:rgb(0%,0%,0%);stop-opacity:0.313726;"/>
<stop offset="0.222222" style="stop-color:rgb(0%,0%,0%);stop-opacity:0.27451;"/>
<stop offset="1" style="stop-color:rgb(0%,0%,0%);stop-opacity:0;"/>
</radialGradient>
<radialGradient id="radial2" gradientUnits="userSpaceOnUse" cx="450.908936" cy="189.579361" fx="450.908936" fy="189.579361" r="21.166656" gradientTransform="matrix(-0.000000261256,-0.117199,0.210958,-0.000000152308,-30.56642,95.392999)">
<stop offset="0" style="stop-color:rgb(0%,0%,0%);stop-opacity:0.313726;"/>
<stop offset="0.222222" style="stop-color:rgb(0%,0%,0%);stop-opacity:0.27451;"/>
<stop offset="1" style="stop-color:rgb(0%,0%,0%);stop-opacity:0;"/>
</radialGradient>
<radialGradient id="radial3" gradientUnits="userSpaceOnUse" cx="450.908936" cy="189.579361" fx="450.908936" fy="189.579361" r="21.166656" gradientTransform="matrix(0.000000261256,0.117199,-0.210958,0.000000152308,78.195969,-11.291219)">
<stop offset="0" style="stop-color:rgb(0%,0%,0%);stop-opacity:0.313726;"/>
<stop offset="0.222222" style="stop-color:rgb(0%,0%,0%);stop-opacity:0.27451;"/>
<stop offset="1" style="stop-color:rgb(0%,0%,0%);stop-opacity:0;"/>
</radialGradient>
<linearGradient id="linear1" gradientUnits="userSpaceOnUse" x1="169.333328" y1="233.5" x2="169.333328" y2="-168.666656" gradientTransform="matrix(0.093759,0,0,0.093759,0,20.158175)">
<stop offset="0" style="stop-color:rgb(16.078432%,71.372551%,96.470588%);stop-opacity:1;"/>
<stop offset="1" style="stop-color:rgb(30.980393%,76.47059%,96.862745%);stop-opacity:1;"/>
</linearGradient>
<linearGradient id="linear2" gradientUnits="userSpaceOnUse" x1="254" y1="233.5" x2="254" y2="-168.666656" gradientTransform="matrix(0.093759,0,0,0.093759,0,20.158175)">
<stop offset="0" style="stop-color:rgb(36.078432%,41.960785%,75.294119%);stop-opacity:1;"/>
<stop offset="1" style="stop-color:rgb(47.450981%,52.549022%,79.607844%);stop-opacity:1;"/>
</linearGradient>
</defs>
<g id="surface1">
<path style=" stroke:none;fill-rule:nonzero;fill:url(#linear0);" d="M 8.929688 41.902344 L 38.699219 41.902344 L 38.699219 44.109375 L 8.929688 44.109375 Z M 8.929688 41.902344 "/>
<path style=" stroke:none;fill-rule:nonzero;fill:url(#radial0);" d="M 38.699219 42.050781 L 42.667969 42.050781 L 42.667969 40.066406 L 38.699219 40.066406 Z M 38.699219 42.050781 "/>
<path style=" stroke:none;fill-rule:nonzero;fill:url(#radial1);" d="M 8.929688 42.050781 L 4.960938 42.050781 L 4.960938 44.035156 L 8.929688 44.035156 Z M 8.929688 42.050781 "/>
<path style=" stroke:none;fill-rule:nonzero;fill:url(#radial2);" d="M 8.929688 42.050781 L 4.960938 42.050781 L 4.960938 40.066406 L 8.929688 40.066406 Z M 8.929688 42.050781 "/>
<path style=" stroke:none;fill-rule:nonzero;fill:url(#radial3);" d="M 38.699219 42.050781 L 42.667969 42.050781 L 42.667969 44.035156 L 38.699219 44.035156 Z M 38.699219 42.050781 "/>
<path style=" stroke:none;fill-rule:nonzero;fill:url(#linear1);" d="M 6.945312 4.34375 L 40.683594 4.34375 C 41.78125 4.34375 42.667969 5.234375 42.667969 6.328125 L 42.667969 40.066406 C 42.667969 41.164062 41.78125 42.050781 40.683594 42.050781 L 6.945312 42.050781 C 5.851562 42.050781 4.960938 41.164062 4.960938 40.066406 L 4.960938 6.328125 C 4.960938 5.234375 5.851562 4.34375 6.945312 4.34375 Z M 6.945312 4.34375 "/>
<path style=" stroke:none;fill-rule:nonzero;fill:rgb(90.196079%,90.196079%,90.196079%);fill-opacity:0.392157;" d="M 6.945312 4.34375 C 5.847656 4.34375 4.960938 5.230469 4.960938 6.328125 L 4.960938 6.578125 C 4.960938 5.476562 5.847656 4.589844 6.945312 4.59375 L 40.683594 4.59375 C 41.78125 4.589844 42.667969 5.476562 42.667969 6.578125 L 42.667969 6.328125 C 42.667969 5.230469 41.78125 4.34375 40.683594 4.34375 Z M 6.945312 4.34375 "/>
<path style=" stroke:none;fill-rule:nonzero;fill:rgb(0%,0%,0%);fill-opacity:0.196078;" d="M 6.945312 42.050781 C 5.847656 42.050781 4.960938 41.164062 4.960938 40.066406 L 4.960938 39.816406 C 4.960938 40.917969 5.847656 41.804688 6.945312 41.804688 L 40.683594 41.804688 C 41.78125 41.804688 42.667969 40.917969 42.667969 39.816406 L 42.667969 40.066406 C 42.667969 41.164062 41.78125 42.050781 40.683594 42.050781 Z M 6.945312 42.050781 "/>
<path style="fill:none;stroke-width:3;stroke-linecap:round;stroke-linejoin:miter;stroke:rgb(12.941177%,12.941177%,12.941177%);stroke-opacity:1;stroke-miterlimit:4;" d="M 74.076259 -168.671091 L 433.916896 -168.671091 C 445.624112 -168.671091 455.081542 -159.171998 455.081542 -147.506445 L 455.081542 212.334192 C 455.081542 224.041407 445.624112 233.498837 433.916896 233.498837 L 74.076259 233.498837 C 62.410707 233.498837 52.911614 224.041407 52.911614 212.334192 L 52.911614 -147.506445 C 52.911614 -159.171998 62.410707 -168.671091 74.076259 -168.671091 Z M 74.076259 -168.671091 " transform="matrix(0.093759,0,0,0.093759,0,20.158175)"/>
<path style=" stroke:none;fill-rule:nonzero;fill:url(#linear2);" d="M 12.039062 31.675781 C 8.085938 30.640625 6.449219 27.644531 7.351562 23.085938 C 8.449219 17.539062 12.324219 14.460938 18.183594 14.488281 C 27.027344 14.527344 29.671875 14.703125 29.621094 15.246094 C 29.574219 15.726562 29.519531 15.769531 28.832031 15.84375 C 27.835938 15.957031 27.828125 15.757812 29.078125 21.621094 C 30.195312 26.863281 30.308594 27.230469 30.691406 26.8125 C 31.191406 26.273438 37.191406 16.148438 37.101562 16.003906 C 37.046875 15.917969 36.640625 15.84375 36.195312 15.84375 C 35.351562 15.84375 35.296875 15.78125 35.488281 15.066406 C 35.59375 14.675781 40.464844 14.464844 40.464844 14.851562 C 40.464844 15.460938 40.121094 15.84375 39.574219 15.84375 C 38.832031 15.84375 38.980469 15.636719 34.476562 23.136719 C 28.828125 32.539062 29.558594 31.59375 27.972656 31.539062 C 26.484375 31.484375 26.792969 32.332031 24.808594 22.890625 C 23.609375 17.171875 22.304688 15.597656 18.757812 15.597656 C 14.730469 15.597656 12.113281 19.386719 11.839844 25.609375 C 11.648438 29.984375 14.09375 31.847656 18.035156 30.328125 C 19.09375 29.921875 19.125 29.867188 19.585938 27.582031 C 20.101562 25.035156 20.097656 25.019531 18.914062 25.019531 C 17.992188 25.019531 17.992188 25.019531 18.105469 24.488281 C 18.273438 23.691406 18.242188 23.695312 21.308594 23.746094 C 24.652344 23.796875 24.371094 23.328125 23.582031 27.503906 C 22.996094 30.605469 23.140625 30.457031 19.820312 31.359375 C 17.933594 31.871094 13.480469 32.050781 12.039062 31.675781 Z M 12.039062 31.675781 "/>
<path style=" stroke:none;fill-rule:nonzero;fill:rgb(100%,100%,100%);fill-opacity:0.392157;" d="M 18.183594 14.574219 C 12.324219 14.550781 8.449219 17.625 7.351562 23.171875 C 7.175781 24.054688 7.097656 24.875 7.113281 25.636719 C 7.125 24.972656 7.203125 24.265625 7.351562 23.515625 C 8.449219 17.96875 12.324219 14.894531 18.183594 14.917969 C 26.390625 14.953125 29.257812 15.109375 29.585938 15.566406 C 29.601562 15.5 29.609375 15.425781 29.621094 15.332031 C 29.671875 14.789062 27.027344 14.613281 18.183594 14.574219 Z M 38.917969 14.730469 C 37.480469 14.734375 35.554688 14.90625 35.488281 15.152344 C 35.40625 15.464844 35.367188 15.652344 35.421875 15.765625 C 35.4375 15.6875 35.460938 15.597656 35.488281 15.496094 C 35.589844 15.121094 40.023438 14.914062 40.433594 15.230469 C 40.453125 15.140625 40.464844 15.042969 40.464844 14.9375 C 40.464844 14.792969 39.777344 14.730469 38.917969 14.730469 Z M 36.980469 16.367188 C 36.136719 18.011719 31.144531 26.410156 30.691406 26.898438 C 30.308594 27.316406 30.195312 26.949219 29.078125 21.707031 C 28.476562 18.890625 28.167969 17.472656 28.117188 16.746094 C 28.058594 17.328125 28.363281 18.699219 29.078125 22.054688 C 30.195312 27.292969 30.308594 27.664062 30.691406 27.246094 C 31.191406 26.703125 37.191406 16.578125 37.101562 16.433594 C 37.085938 16.410156 37.042969 16.386719 36.980469 16.367188 Z M 19.707031 23.8125 C 18.246094 23.820312 18.238281 23.949219 18.105469 24.574219 C 18.058594 24.800781 18.03125 24.929688 18.085938 25.007812 C 18.09375 24.976562 18.097656 24.949219 18.105469 24.917969 C 18.273438 24.121094 18.242188 24.128906 21.308594 24.175781 C 23.300781 24.207031 24.003906 24.054688 24.082031 24.804688 C 24.167969 23.664062 23.5625 23.867188 21.308594 23.832031 C 20.636719 23.820312 20.117188 23.8125 19.707031 23.8125 Z M 19.90625 25.867188 C 19.875 26.246094 19.761719 26.816406 19.585938 27.671875 C 19.125 29.953125 19.09375 30.007812 18.035156 30.414062 C 14.292969 31.859375 11.898438 30.25 11.832031 26.339844 C 11.761719 30.5 14.1875 32.242188 18.035156 30.757812 C 19.09375 30.351562 19.125 30.296875 19.585938 28.015625 C 19.824219 26.847656 19.949219 26.214844 19.90625 25.867188 Z M 19.90625 25.867188 "/>
<path style=" stroke:none;fill-rule:nonzero;fill:rgb(0%,0%,0%);fill-opacity:0.235294;" d="M 40.320312 15.609375 C 40.167969 15.863281 39.910156 16.007812 39.574219 16.007812 C 38.832031 16.007812 38.980469 15.800781 34.476562 23.296875 C 28.828125 32.703125 29.558594 31.757812 27.972656 31.699219 C 26.484375 31.648438 26.792969 32.492188 24.808594 23.050781 C 23.609375 17.332031 22.304688 15.761719 18.757812 15.761719 C 14.730469 15.761719 12.113281 19.546875 11.839844 25.773438 C 11.828125 26.054688 11.824219 26.328125 11.835938 26.589844 C 11.835938 26.546875 11.835938 26.507812 11.839844 26.46875 C 12.113281 20.242188 14.730469 16.457031 18.757812 16.457031 C 22.304688 16.457031 23.609375 18.027344 24.808594 23.746094 C 26.792969 33.1875 26.484375 32.34375 27.972656 32.394531 C 29.558594 32.453125 28.828125 33.398438 34.476562 23.992188 C 38.980469 16.496094 38.832031 16.703125 39.574219 16.703125 C 40.121094 16.703125 40.464844 16.316406 40.464844 15.710938 C 40.464844 15.667969 40.410156 15.636719 40.320312 15.609375 Z M 29.4375 15.878906 C 29.332031 15.945312 29.148438 15.972656 28.832031 16.007812 C 28.269531 16.070312 28.023438 16.035156 28.140625 17.050781 C 28.21875 16.742188 28.453125 16.746094 28.832031 16.703125 C 29.519531 16.625 29.574219 16.585938 29.621094 16.105469 C 29.628906 16.019531 29.570312 15.945312 29.4375 15.878906 Z M 35.492188 15.917969 C 35.488281 15.921875 35.488281 15.921875 35.488281 15.925781 C 35.296875 16.640625 35.351562 16.703125 36.195312 16.703125 C 36.425781 16.703125 36.648438 16.722656 36.816406 16.753906 C 37.007812 16.402344 37.113281 16.1875 37.101562 16.164062 C 37.046875 16.078125 36.640625 16.007812 36.195312 16.007812 C 35.820312 16.007812 35.601562 15.996094 35.492188 15.917969 Z M 24.0625 25.101562 C 23.992188 25.65625 23.808594 26.46875 23.582031 27.664062 C 22.996094 30.769531 23.140625 30.621094 19.820312 31.519531 C 17.933594 32.035156 13.480469 32.214844 12.039062 31.839844 C 8.910156 31.015625 7.230469 28.96875 7.117188 25.886719 C 6.992188 29.355469 8.679688 31.652344 12.039062 32.535156 C 13.480469 32.910156 17.933594 32.730469 19.820312 32.214844 C 23.140625 31.316406 22.996094 31.464844 23.582031 28.359375 C 23.929688 26.515625 24.179688 25.578125 24.0625 25.101562 Z M 18.152344 25.132812 C 18.136719 25.195312 18.121094 25.265625 18.105469 25.34375 C 17.992188 25.878906 17.992188 25.878906 18.914062 25.878906 C 19.488281 25.878906 19.785156 25.882812 19.878906 26.175781 C 20.011719 25.191406 19.773438 25.183594 18.914062 25.183594 C 18.496094 25.183594 18.265625 25.179688 18.152344 25.132812 Z M 18.152344 25.132812 "/>
<path style="fill:none;stroke-width:3;stroke-linecap:butt;stroke-linejoin:miter;stroke:rgb(12.941177%,12.941177%,12.941177%);stroke-opacity:1;stroke-miterlimit:4;" d="M 128.404405 122.842738 C 86.241764 111.802125 68.785098 79.846844 78.409179 31.226487 C 90.116394 -27.934531 131.445781 -60.764729 193.939813 -60.47309 C 288.264139 -60.056463 316.469779 -58.181642 315.928164 -52.390528 C 315.428211 -47.266018 314.844934 -46.807728 307.512301 -46.016137 C 296.888315 -44.807919 296.80499 -46.932716 310.13705 15.602979 C 322.052579 71.514306 323.260797 75.430599 327.34374 70.972691 C 332.676564 65.22324 396.670453 -42.766447 395.712211 -44.307967 C 395.128934 -45.224546 390.796014 -46.016137 386.046468 -46.016137 C 377.047327 -46.016137 376.464049 -46.68274 378.505521 -54.307012 C 379.630414 -58.473281 431.583786 -60.723066 431.583786 -56.59846 C 431.583786 -50.099081 427.917469 -46.016137 422.084693 -46.016137 C 414.168782 -46.016137 415.751964 -48.22426 367.714885 31.768101 C 307.470638 132.050192 315.261561 121.967821 298.346509 121.384544 C 282.473025 120.801266 285.764378 129.842069 264.599732 29.143352 C 251.809287 -31.850823 237.893949 -48.640887 200.064228 -48.640887 C 157.109997 -48.640887 129.195996 -8.228079 126.279608 58.140583 C 124.238136 104.802794 150.318979 124.675896 192.356631 108.46911 C 203.647219 104.136191 203.980521 103.552913 208.896718 79.180241 C 214.396193 52.016168 214.35453 51.849517 201.730736 51.849517 C 191.898341 51.849517 191.898341 51.849517 193.106559 46.183392 C 194.898055 37.684203 194.564753 37.725866 227.269963 38.267481 C 262.933224 38.809096 259.933511 33.809573 251.517648 78.346987 C 245.268245 111.427161 246.809764 109.843979 211.396479 119.46806 C 191.273401 124.925872 143.777937 126.842356 128.404405 122.842738 Z M 128.404405 122.842738 " transform="matrix(0.093759,0,0,0.093759,0,20.158175)"/>
</g>
</svg>
